X: 1
T: Chorus Jig
O: Trad New England
R: reel
Z: 1997 by John Chambers <jc:trillian.mit.edu>
N: This tune is a mixture of D major, D mixolydian and G major.
M: C|
L: 1/8
K: EMix
"A"|: BA | "E"G2EG BcBA |     GBEG     B2e2  |    E2EG BcBG | "B7"AGFG    A2  :|
"B"[| cd | "A"ecdB cAGA | "E7"Be^de    B2c=d | "A"ecdB cAGA | "E7"BdcB "A"A2cd |
         | "A"ecdB cAGA |  "D"Bcde     fgaf  | "A"ecdB cAGA | "E7"BdcB "A"A2  |]
"C"|: ba | "E"gee2 gee2 |     gega "B7"bc'ba | "E"gee2 gee2 | "D"f=dfg    a2  :|
P: Play ABCB
